!!!OTL: Haladin's Crew
!!!ONM: 111.
**kern
*clefG2
*k[]
*C:
*M4/4
*MM84
{4e
=1
2c
4d
4e
=2
(4e
4d)
4g
4g
=3
2d
4d
4e
=4
2c
4r}
{4g
=5
2cc
4b
4a
=6
2d
4g
4g
=7
4a
4cc
(4b
4a)
=8
2g
4r}
{4g
=9
2cc
4b
4a
=10
2d
4r
4g
=11
4a
4cc
4b
4a
=12
2g
4r}
{4c
=13
2c
4e
4g
=14
2cc
4g
4e
=15
2e
4f
4d
=16
4.c}
==
*-
!!!CNT: Folksongs of Maritime Canada
!!!MRD: 1928///-1932///
!!!OCL: Helen Creighton
!!!YOR: Songs and Ballads from Nova Scotia
!!!PPR: J.M. Dent & Sons, Limited
!!!PPP: Toronto, Canada
!!!PDT: 1932///
!!!reprint: Dover Publications, 1992: ISBN 0-486-21703-5
!!!ENC1: Craig Stuart Sapp (music and bibliographic data)                       
!!!ENC2: Marcus Pearce (phrase markings and key designations)                   
!!!ENC3: Darrell Conklin (phrase markings and key designations)   
!!!END: 2002/04/10/
!!!EEV: 2004/06/05
!!!MPN: Mr. Ben Henneberry
!!!PPG: 241
!!!EFL: 112/152
!!!ARE: Canada; Nova Scotia
!!!verses: 7
!!!VTS: 3536028395
